X:1
T:Oh, Bliss of the Purified
T:Oh, Bliss of the Purified
T:William Batchelder Bradbury
T:Francis Bottome, 1869
T:Public Domain Courtesy of the Cyber Hymnal™
C:William Batchelder Bradbury
Z:Public Domain
Z:Courtesy of the Cyber Hymnal™
%%score 1 ( 2 3 )
L:1/8
Q:1/4=113
M:3/2
K:C
V:1 treble 
V:2 bass 
V:3 bass 
V:1
 [EG]2 | [EG]4 [FA]>[FB] | [Ec]>[FB] [Ec]4 | [Fd]4 [Ec]>[Fd] | [Ge]4 ([Fd][Ec]) | [Fc]4 [FB]>[FA] | %6
w: 1.~Oh,|bliss of the|pu- ri- fied,|bliss of the|free, I *|plunge in the|
w: 2.~Oh,|bliss of the|pu- ri- fied!|Je- sus is|mine, No *|long- er in|
w: 3.~Oh,|bliss of the|pu- ri- fied!|bliss of the|pure! No *|wound hath the|
w: 4.~O|Je- sus the|Cru- ci- fied!|Thee will I|sing, My *|bless- èd Re-|
 [EG]>[CE] [EG]4 | [DB]2 [Ec]2 [Fd]2 | [Ec]4 [EG]2 | [EG]4 [FA]>[FB] | [Ec]>[FB] [Ec]4 | %11
w: crim- son tide|o- pened for|me; O’er|sin and un-|clean- ness ex-|
w: dread con- dem-|na- tion I|pine; In|con- scious sal-|va- tion I|
w: soul that His|blood can- not|cure; No|sor- row- bowed|head but may|
w: deem- er, my|God and my|King; My|soul, filled with|rap- ture, shall|
 [Fd]4 [Ec]>[Fd] | [Ge]4 ([Fd][Ec]) | [Fc]4 [FB]>[FA] | [EG]>[CE] [EG]4 | [DB]2 [Ec]2 [Fd]2 | %16
w: ult- ing I|stand, And *|point to the|print of the|nails in His|
w: sing of His|grace, Who *|lift- ed up-|on me the|light of His|
w: sweet- ly find|rest, No *|tears— but may|dr- y them|on Je- sus’|
w: shout o’er the|grave, And *|tri- umph in|death in the|“Might- y to|
 [Ec]4 ||"^Refrain" [EG]2 | [EG]4 [DF]>[DF] | [CE]>[DF] [EG]4 | [FB]4 [FA]>[FB] | [Ec]>[FG] [EG]4 | %22
w: hand.||||||
w: face.||||||
w: breast.||||||
w: Save.”||||||
 [FA]4 [FB]>[Fc] | [Ec]>[CG] [EG]4 | [DG]2 [EG]2 [FG]2 | [EG]4 |] %26
w: ||||
w: ||||
w: ||||
w: ||||
V:2
 [C,C]2 | [C,C]4 [C,C]>[C,G,] | [C,G,]>[C,G,] [C,G,]4 | [G,B,]4 [G,C]>[G,B,] | [C,C]4 [C,G,]2 | %5
w: ~|~ ~ ~|~ ~ ~|~ ~ ~|~ ~|
 [F,A,]4 [F,B,]>[F,C] | [C,C]>[C,G,] [E,C]4 | G,2 G,2 G,2 | [C,G,]4 [C,C]2 | [C,C]4 [C,C]>[C,G,] | %10
w: ~ ~ ~|~ ~ ~|~ ~ ~|~ ~|~ ~ ~|
 [C,G,]>[C,G,] [C,G,]4 | [G,B,]4 [G,C]>[G,B,] | [C,C]4 [C,G,]2 | [F,A,]4 [F,B,]>[F,C] | %14
w: ~ ~ ~|~ ~ ~|~ ~|~ ~ ~|
 [C,C]>[C,G,] [E,C]4 | G,2 G,2 G,2 | [C,G,]4 || [C,G,]2 | [C,G,]4 [C,A,]>[C,B,] | %19
w: ~ ~ ~|~ ~ ~|~|Oh,|sing of His|
 [C,C]>[C,B,] [C,C]4 | [G,,G,D]4 [G,,G,C]>[G,,G,D] | [C,E]>[C,D] [C,C]4 | [F,C]4 [F,B,]>[F,A,] | %23
w: might- y love,|Sing of His|might- y love,|Sing of His|
 [C,G,]>[C,E,] [C,G,]4 | [G,,B,]2 [G,,C]2 [G,,D]2 | [C,C]4 |] %26
w: might- y love,|Might- y to|save.|
V:3
 x2 | x6 | x6 | x6 | x6 | x6 | x6 | G,2 G,2 G,2 | x6 | x6 | x6 | x6 | x6 | x6 | x6 | G,2 G,2 G,2 | %16
 x4 || x2 | x6 | x6 | x6 | x6 | x6 | x6 | x6 | x4 |] %26

